; generated by PrusaSlicer 2.5.0+win64 on 2023-03-20 at 13:27:00 UTC


;
;
; 

; external perimeters extrusion width = 0.45mm
; perimeters extrusion width = 0.45mm
; infill extrusion width = 0.45mm
; solid infill extrusion width = 0.45mm
; top infill extrusion width = 0.40mm
; first layer extrusion width = 0.42mm

M73 P0 R154
M73 Q0 S158
M201 X1000 Y1000 Z200 E5000 ; sets maximum accelerations, mm/sec^2
M203 X200 Y200 Z12 E120 ; sets maximum feedrates, mm / sec
M204 P1250 R1250 T1250 ; sets acceleration (P, T) and retract acceleration (R), mm/sec^2
M205 X8.00 Y8.00 Z0.40 E4.50 ; sets the jerk limits, mm/sec
M205 S0 T0 ; sets the minimum extruding and travel feed rate, mm/sec
M107
;TYPE:Custom
M862.3 P "MK3S" ; printer model check
M862.1 P0.4 ; nozzle diameter check
M115 U3.11.0 ; tell printer latest fw version
G90 ; use absolute coordinates
M83 ; extruder relative mode
M104 S215 ; set extruder temp
M140 S60 ; set bed temp
M190 S60 ; wait for bed temp
M109 S215 ; wait for extruder temp
G28 W ; home all without mesh bed level
G80 ; mesh bed leveling

G1 Z0.2 F720
G1 Y-3 F1000 ; go outside print area
G92 E0
G1 X60 E9 F1000 ; intro line
G1 X100 E12.5 F1000 ; intro line

G92 E0
M221 S95

; Don't change E values below. Excessive value can damage the printer.

M907 E538 ; set extruder motor current
G21 ; set units to millimeters
G90 ; use absolute coordinates
M83 ; use relative distances for extrusion
M900 K0.05 ; Filament gcode LA 1.5
M900 K30 ; Filament gcode LA 1.0
M107
;LAYER_CHANGE
;Z:0.2
;HEIGHT:0.2
;BEFORE_LAYER_CHANGE
G92 E0.0
;0.2


M73 P0 R153
G1 E-.8 F2100
G1 Z.4 F720
;AFTER_LAYER_CHANGE
;0.2
G1 X77.723 Y28.088 F10800
G1 Z.2 F720
G1 E.8 F2100
M204 S800
;TYPE:Skirt/Brim
;WIDTH:0.42
G1 F1200
G1 X78.419 Y26.407 E.05704
G1 X81.407 Y23.419 E.13247
G1 X83.088 Y22.723 E.05704
G1 X166.912 Y22.723 E2.62827
G1 X168.593 Y23.419 E.05704
G1 X171.581 Y26.407 E.13247
G1 X172.277 Y28.088 E.05704
G1 X172.277 Y181.912 E4.82307
G1 X171.581 Y183.593 E.05704
G1 X168.593 Y186.581 E.13247
G1 X166.912 Y187.277 E.05704
G1 X83.088 Y187.277 E2.62827
G1 X81.407 Y186.581 E.05704
G1 X78.419 Y183.593 E.13247
G1 X77.723 Y181.912 E.05704
G1 X77.723 Y28.148 E4.82119
M204 S1000
;WIPE_START
G1 F8640
G1 X78.419 Y26.407 E-.43292
G1 X79.421 Y25.405 E-.32708
;WIPE_END
G1 E-.04 F2100
G1 Z.6 F720
G1 X80.606 Y29.061 F10800
G1 Z.2 F720
G1 E.8 F2100
M204 S800
G1 F1200
G1 X81.011 Y27.781 E.0421
G1 X81.519 Y27.096 E.02674
G1 X82.55 Y26.159 E.04366
G1 X83.47 Y25.701 E.03223
G1 X84.782 Y25.387 E.04231
G1 X165.189 Y25.39 E2.5211
G1 X166.209 Y25.584 E.03256
G1 X167.188 Y26 E.03333
G1 X168.312 Y26.896 E.04508
G1 X169.205 Y28.234 E.05044
G1 X169.613 Y29.779 E.05011
G1 X169.613 Y180.247 E4.71783
G1 X168.989 Y182.219 E.06486
G1 X168.481 Y182.904 E.02674
G1 X167.45 Y183.841 E.04366
G1 X166.53 Y184.299 E.03223
G1 X165.218 Y184.613 E.04231
G1 X84.753 Y184.613 E2.52292
G1 X82.781 Y183.989 E.06486
M73 Q0 S157
G1 X82.096 Y183.481 E.02674
G1 X81.159 Y182.45 E.04366
G1 X80.701 Y181.53 E.03223
G1 X80.387 Y180.218 E.04231
G1 X80.387 Y29.753 E4.71772
G1 X80.588 Y29.118 E.02088
M204 S1000
G1 X80.938 Y29.229 F10800
M204 S800
G1 F1200
G1 X81.334 Y27.979 E.04111
G1 X81.788 Y27.361 E.02407
G1 X82.744 Y26.484 E.04065
G1 X83.581 Y26.062 E.0294
G1 X84.805 Y25.764 E.03951
G1 X165.171 Y25.767 E2.51981
G1 X166.117 Y25.95 E.03023
G1 X167.015 Y26.336 E.03062
G1 X168.053 Y27.171 E.0418
G1 X168.849 Y28.362 E.0449
G1 X169.236 Y29.804 E.04682
G1 X169.236 Y180.218 E4.71613
G1 X168.666 Y182.021 E.05929
M73 P0 R152
G1 X168.212 Y182.639 E.02407
G1 X167.257 Y183.516 E.04065
G1 X166.419 Y183.938 E.0294
G1 X165.195 Y184.236 E.03951
G1 X84.782 Y184.236 E2.52129
G1 X82.979 Y183.666 E.05929
G1 X82.361 Y183.212 E.02407
G1 X81.484 Y182.257 E.04065
G1 X81.062 Y181.419 E.0294
G1 X80.764 Y180.195 E.03951
G1 X80.764 Y29.782 E4.7161
G1 X80.92 Y29.286 E.0163
M204 S1000
G1 X81.271 Y29.397 F10800
M204 S800
G1 F1200
G1 X81.656 Y28.176 E.04014
G1 X82.059 Y27.624 E.02142
G1 X82.939 Y26.807 E.03764
G1 X83.694 Y26.423 E.02656
G1 X84.829 Y26.141 E.03667
G1 X165.152 Y26.144 E2.51849
G1 X166.024 Y26.316 E.02786
G1 X166.84 Y26.671 E.0279
G1 X167.793 Y27.445 E.03848
G1 X168.517 Y28.543 E.04126
G1 X168.859 Y29.828 E.0417
G1 X168.859 Y180.189 E4.71447
G1 X168.344 Y181.824 E.05375
M73 P1 R152
G1 X167.941 Y182.376 E.02142
G1 X167.061 Y183.193 E.03764
G1 X166.306 Y183.577 E.02656
G1 X165.171 Y183.859 E.03667
G1 X84.811 Y183.859 E2.51966
G1 X83.176 Y183.344 E.05375
M73 Q1 S157
G1 X82.624 Y182.941 E.02142
G1 X81.807 Y182.061 E.03764
G1 X81.423 Y181.306 E.02656
G1 X81.141 Y180.171 E.03667
G1 X81.141 Y29.811 E4.71446
G1 X81.253 Y29.454 E.01172
M204 S1000
G1 X81.604 Y29.565 F10800
M204 S800
G1 F1200
G1 X81.98 Y28.372 E.03922
G1 X82.331 Y27.886 E.01879
G1 X83.136 Y27.13 E.03463
G1 X83.808 Y26.783 E.02372
G1 X84.853 Y26.518 E.03378
G1 X165.133 Y26.521 E2.51714
G1 X165.929 Y26.681 E.02545
M73 Q1 S156
G1 X166.664 Y27.005 E.02518
G1 X167.53 Y27.717 E.03516
G1 X168.185 Y28.723 E.03763
G1 X168.482 Y29.852 E.03663
G1 X168.482 Y180.161 E4.71281
G1 X168.02 Y181.628 E.04825
G1 X167.669 Y182.114 E.01879
G1 X166.864 Y182.87 E.03463
G1 X166.192 Y183.217 E.02372
G1 X165.148 Y183.482 E.03378
G1 X84.839 Y183.482 E2.51801
G1 X83.372 Y183.02 E.04825
G1 X82.886 Y182.669 E.01879
G1 X82.13 Y181.864 E.03463
G1 X81.783 Y181.192 E.02372
G1 X81.518 Y180.148 E.03378
G1 X81.518 Y29.839 E4.71281
G1 X81.586 Y29.622 E.00715
M204 S1000
M73 P1 R151
G1 X81.938 Y29.732 F10800
M204 S800
G1 F1200
G1 X82.304 Y28.566 E.03834
G1 X82.604 Y28.146 E.01619
G1 X83.335 Y27.451 E.03162
G1 X83.925 Y27.142 E.02087
G1 X84.877 Y26.895 E.03085
G1 X165.114 Y26.898 E2.51579
G1 X165.796 Y27.035 E.02178
G1 X166.487 Y27.339 E.02369
G1 X167.267 Y27.988 E.03181
G1 X167.829 Y28.85 E.03225
G1 X168.105 Y29.878 E.03337
G1 X168.105 Y180.132 E4.71112
G1 X167.696 Y181.434 E.0428
G1 X167.396 Y181.854 E.01619
G1 X166.665 Y182.549 E.03162
G1 X166.075 Y182.858 E.02087
G1 X165.123 Y183.105 E.03084
G1 X84.868 Y183.105 E2.51634
G1 X83.566 Y182.696 E.0428
G1 X83.146 Y182.396 E.01619
G1 X82.451 Y181.665 E.03162
G1 X82.142 Y181.075 E.02087
G1 X81.895 Y180.123 E.03084
G1 X81.895 Y29.868 E4.71114
G1 X81.92 Y29.79 E.00258
M204 S1000
G1 X82.272 Y29.897 F10800
M204 S800
G1 F1200
G1 X82.63 Y28.759 E.03741
G1 X82.88 Y28.404 E.01361
G1 X83.537 Y27.771 E.02862
G1 X84.044 Y27.5 E.01801
G1 X84.902 Y27.272 E.02785
G1 X165.095 Y27.276 E2.51439
G1 X165.699 Y27.4 E.01933
G1 X166.308 Y27.672 E.02093
G1 X167.001 Y28.257 E.02843
G1 X167.495 Y29.028 E.0287
G1 X167.728 Y29.902 E.02837
G1 X167.728 Y180.103 E4.70945
G1 X167.37 Y181.241 E.03741
G1 X167.12 Y181.596 E.01361
G1 X166.463 Y182.229 E.02862
G1 X165.956 Y182.5 E.01801
G1 X165.098 Y182.728 E.02785
G1 X84.897 Y182.728 E2.51465
G1 X83.759 Y182.37 E.03741
M73 Q1 S155
G1 X83.404 Y182.12 E.01361
G1 X82.771 Y181.463 E.02862
G1 X82.5 Y180.956 E.01801
G1 X82.272 Y180.098 E.02785
G1 X82.272 Y29.957 E4.70757
M204 S1000
G1 X82.649 Y29.957 F10800
M204 S800
G1 F1200
G1 X82.956 Y28.95 E.03301
G1 X83.157 Y28.66 E.01106
G1 X83.741 Y28.088 E.02562
G1 X84.166 Y27.858 E.01515
G1 X84.928 Y27.649 E.02478
G1 X165.074 Y27.653 E2.51294
G1 X165.599 Y27.764 E.01682
G1 X166.127 Y28.004 E.01817
G1 X166.734 Y28.525 E.0251
G1 X167.139 Y29.156 E.02351
G1 X167.351 Y29.928 E.0251
G1 X167.351 Y180.074 E4.70773
G1 X167.044 Y181.05 E.03208
M73 P2 R150
G1 X166.843 Y181.34 E.01106
G1 X166.259 Y181.912 E.02562
G1 X165.834 Y182.142 E.01515
G1 X165.072 Y182.351 E.02478
G1 X84.926 Y182.351 E2.51293
G1 X83.95 Y182.044 E.03208
M73 Q2 S155
G1 X83.66 Y181.843 E.01106
G1 X83.088 Y181.259 E.02562
G1 X82.858 Y180.834 E.01515
G1 X82.649 Y180.072 E.02478
G1 X82.649 Y30.017 E4.70487
M204 S1000
G1 X83.026 Y30.017 F10800
M204 S800
G1 F1200
G1 X83.026 Y29.955 E.00195
G1 X83.283 Y29.139 E.02682
G1 X83.437 Y28.914 E.00855
G1 X83.949 Y28.404 E.02264
G1 X84.291 Y28.214 E.01229
G1 X84.955 Y28.026 E.02163
G1 X165.053 Y28.03 E2.51143
G1 X165.497 Y28.127 E.01424
G1 X165.943 Y28.334 E.01541
G1 X166.466 Y28.791 E.02178
G1 X166.785 Y29.286 E.01847
G1 X166.974 Y29.955 E.02179
G1 X166.974 Y180.045 E4.70599
G1 X166.717 Y180.861 E.02682
G1 X166.563 Y181.086 E.00855
G1 X166.051 Y181.596 E.02264
G1 X165.709 Y181.786 E.01229
G1 X165.045 Y181.974 E.02163
G1 X84.955 Y181.974 E2.51118
G1 X84.139 Y181.717 E.02682
G1 X83.914 Y181.563 E.00855
G1 X83.404 Y181.051 E.02264
G1 X83.214 Y180.709 E.01229
G1 X83.026 Y180.045 E.02163
G1 X83.026 Y30.077 E4.70215
M204 S1000
G1 X83.403 Y30.077 F10800
M204 S800
G1 F1200
G1 X83.403 Y29.984 E.00292
G1 X83.612 Y29.325 E.02167
G1 X83.719 Y29.164 E.00606
G1 X84.16 Y28.718 E.01967
G1 X84.42 Y28.569 E.00942
G1 X84.983 Y28.403 E.01838
G1 X165.031 Y28.407 E2.50985
G1 X165.391 Y28.49 E.01157
M73 Q2 S154
G1 X165.756 Y28.662 E.01266
G1 X166.196 Y29.054 E.01848
G1 X166.431 Y29.42 E.01362
G1 X166.597 Y29.983 E.01841
G1 X166.597 Y180.016 E4.70419
G1 X166.388 Y180.675 E.02167
G1 X166.281 Y180.836 E.00606
G1 X165.84 Y181.282 E.01967
G1 X165.58 Y181.431 E.00942
G1 X165.017 Y181.597 E.01838
G1 X84.984 Y181.597 E2.50939
G1 X84.325 Y181.388 E.02167
G1 X84.164 Y181.281 E.00606
G1 X83.718 Y180.84 E.01967
G1 X83.569 Y180.58 E.00942
G1 X83.403 Y180.017 E.01838
G1 X83.403 Y30.137 E4.69939
M204 S1000
G1 X83.78 Y30.137 F10800
M204 S800
M73 P2 R149
G1 F1200
G1 X83.78 Y30.013 E.00387
G1 X83.943 Y29.507 E.01667
G1 X84.004 Y29.411 E.00358
G1 X84.375 Y29.028 E.01672
G1 X84.555 Y28.921 E.00656
G1 X85.012 Y28.78 E.015
G1 X165.009 Y28.784 E2.50824
G1 X165.247 Y28.839 E.00767
G1 X165.568 Y28.991 E.01111
G1 X165.923 Y29.315 E.01508
G1 X166.079 Y29.557 E.00902
G1 X166.22 Y30.012 E.01495
G1 X166.22 Y179.987 E4.70234
G1 X166.057 Y180.493 E.01667
G1 X165.996 Y180.589 E.00358
G1 X165.625 Y180.972 E.01672
G1 X165.445 Y181.079 E.00656
G1 X164.988 Y181.22 E.015
G1 X85.013 Y181.22 E2.50754
G1 X84.507 Y181.057 E.01667
G1 X84.411 Y180.996 E.00358
G1 X84.028 Y180.625 E.01672
G1 X83.921 Y180.445 E.00656
G1 X83.78 Y179.988 E.015
G1 X83.78 Y30.197 E4.69658
M204 S1000
G1 X84.157 Y30.197 F10800
M204 S800
G1 F1200
G1 X84.157 Y30.044 E.00479
G1 X84.294 Y29.653 E.01299
G1 X84.597 Y29.334 E.0138
G1 X84.698 Y29.271 E.00372
G1 X85.044 Y29.157 E.01143
G1 X164.987 Y29.161 E2.50656
G1 X165.104 Y29.188 E.00377
G1 X165.378 Y29.318 E.0095
G1 X165.647 Y29.573 E.0116
G1 X165.73 Y29.7 E.00476
G1 X165.843 Y30.044 E.01136
G1 X165.843 Y179.956 E4.70038
G1 X165.706 Y180.347 E.01299
M73 P3 R149
G1 X165.403 Y180.666 E.0138
G1 X165.302 Y180.729 E.00372
G1 X164.956 Y180.843 E.01143
G1 X85.044 Y180.843 E2.50558
G1 X84.653 Y180.706 E.01299
M73 Q3 S153
G1 X84.334 Y180.403 E.0138
G1 X84.271 Y180.302 E.00372
G1 X84.157 Y179.956 E.01143
G1 X84.157 Y30.257 E4.69371
M204 S1000
G1 X84.534 Y30.257 F10800
M204 S800
G1 F1200
G1 X84.534 Y30.079 E.00557
G1 X84.611 Y29.866 E.00709
G1 X84.828 Y29.632 E.01002
G1 X85.079 Y29.534 E.00845
G1 X164.935 Y29.534 E2.50382
G1 X165.185 Y29.644 E.00856
G1 X165.384 Y29.852 E.00902
G1 X165.466 Y30.079 E.00757
G1 X165.466 Y179.921 E4.69818
G1 X165.389 Y180.134 E.00709
M73 P3 R148
G1 X165.148 Y180.384 E.0109
G1 X164.921 Y180.466 E.00757
G1 X85.079 Y180.466 E2.50338
G1 X84.866 Y180.389 E.00709
G1 X84.616 Y180.148 E.0109
G1 X84.534 Y179.921 E.00757
G1 X84.534 Y30.317 E4.69073
M204 S1000
G1 X84.911 Y30.317 F10800
M204 S800
G1 F1200
G1 X84.911 Y30.121 E.00614
G1 X84.94 Y30.052 E.00235
G1 X85.052 Y29.94 E.00495
G1 X85.121 Y29.911 E.00235
G1 X164.879 Y29.911 E2.50075
G1 X164.948 Y29.94 E.00235
G1 X165.06 Y30.052 E.00495
G1 X165.089 Y30.121 E.00235
G1 X165.089 Y179.879 E4.69555
G1 X165.06 Y179.948 E.00235
G1 X164.948 Y180.06 E.00495
G1 X164.879 Y180.089 E.00235
G1 X85.121 Y180.089 E2.50075
G1 X85.052 Y180.06 E.00235
G1 X84.94 Y179.948 E.00495
G1 X84.911 Y179.879 E.00235
G1 X84.911 Y30.377 E4.68753
M204 S1000
; printing object TESTpieceElavation10cm.STL id:0 copy 0
;WIPE_START
G1 F8640
G1 X84.911 Y30.121 E-.05907
G1 X84.94 Y30.052 E-.01732
G1 X85.052 Y29.94 E-.03645
G1 X85.121 Y29.911 E-.01732
G1 X87.849 Y29.911 E-.62984
;WIPE_END
G1 E-.04 F2100
G1 Z.6 F720
G1 X164.213 Y179.213 F10800
G1 Z.2 F720
G1 E.8 F2100
M204 S800
;TYPE:Perimeter
;WIDTH:0.419999
G1 F1200
G1 X85.787 Y179.213 E2.45898
G1 X85.787 Y30.787 E4.65378
M73 Q3 S152
G1 X164.213 Y30.787 E2.45898
G1 X164.213 Y179.153 E4.6519
M204 S1000
G1 X164.59 Y179.59 F10800
M204 S800
;TYPE:External perimeter
M73 P3 R147
G1 F1200
G1 X85.41 Y179.59 E2.48263
G1 X85.41 Y30.41 E4.67743
G1 X164.59 Y30.41 E2.48263
M73 P4 R147
G1 X164.59 Y179.53 E4.67555
M204 S1000
M73 Q4 S152
G1 X164.216 Y179.449 F10800
;WIPE_START
G1 F8640
G1 X161.299 Y179.532 E-.76
;WIPE_END
G1 E-.04 F2100
G1 Z.6 F720
G1 X156.779 Y46.586 F10800
G1 Z.2 F720
G1 E.8 F2100
M204 S800
;TYPE:Perimeter
G1 F1200
G1 X156.54 Y47.286 E.0232
G1 X156.171 Y47.964 E.02418
G1 X155.668 Y48.605 E.02555
G1 X155.075 Y49.139 E.02502
G1 X154.402 Y49.563 E.02492
G1 X153.668 Y49.866 E.02492
G1 X152.893 Y50.042 E.02492
G1 X152.099 Y50.084 E.02492
G1 X151.31 Y49.991 E.02492
G1 X150.547 Y49.766 E.02492
G1 X149.834 Y49.415 E.02492
G1 X149.19 Y48.949 E.02492
G1 X148.634 Y48.381 E.02492
G1 X148.196 Y47.747 E.02418
G1 X147.849 Y47.009 E.02555
G1 X147.64 Y46.239 E.02502
G1 X147.564 Y45.448 E.02492
G1 X147.623 Y44.655 E.02492
G1 X147.81 Y43.907 E.02418
G1 X148.134 Y43.16 E.02555
G1 X148.574 Y42.494 E.02502
G1 X149.118 Y41.914 E.02492
G1 X149.752 Y41.435 E.02492
G1 X150.458 Y41.07 E.02492
G1 X151.284 Y40.813 E.0271
G1 X151.98 Y40.723 E.022
G1 X152.794 Y40.746 E.02555
G1 X153.576 Y40.906 E.02502
G1 X154.317 Y41.194 E.02492
G1 X154.998 Y41.604 E.02492
G1 X155.6 Y42.123 E.02492
G1 X156.105 Y42.736 E.02492
G1 X156.5 Y43.426 E.02492
G1 X156.773 Y44.173 E.02492
G1 X156.915 Y44.955 E.02492
G1 X156.923 Y45.75 E.02492
G1 X156.798 Y46.529 E.02476
M204 S1000
G1 X156.428 Y46.451 F10800
M204 S800
;TYPE:External perimeter
G1 F1200
G1 X156.184 Y47.161 E.02354
G1 X155.841 Y47.78 E.02218
G1 X155.373 Y48.37 E.02362
G1 X154.826 Y48.856 E.02296
G1 X154.205 Y49.241 E.02292
G1 X153.527 Y49.517 E.02292
G1 X152.813 Y49.673 E.02292
G1 X152.083 Y49.707 E.02292
G1 X151.358 Y49.617 E.02292
G1 X150.658 Y49.405 E.02292
G1 X150.004 Y49.079 E.02292
G1 X149.414 Y48.646 E.02293
G1 X148.907 Y48.12 E.02292
G1 X148.508 Y47.536 E.02218
G1 X148.192 Y46.852 E.02362
G1 X148.005 Y46.144 E.02296
G1 X147.94 Y45.416 E.02292
G1 X147.999 Y44.687 E.02292
G1 X148.175 Y44.002 E.02218
G1 X148.479 Y43.313 E.02362
G1 X148.887 Y42.705 E.02296
G1 X149.39 Y42.175 E.02292
G1 X149.977 Y41.738 E.02292
G1 X150.628 Y41.407 E.02292
G1 X151.349 Y41.185 E.02365
G1 X152.028 Y41.097 E.02145
G1 X152.78 Y41.123 E.02362
G1 X153.497 Y41.274 E.02296
G1 X154.176 Y41.544 E.02292
G1 X154.8 Y41.925 E.02292
G1 X155.351 Y42.406 E.02292
G1 X155.812 Y42.973 E.02292
G1 X156.171 Y43.61 E.02292
G1 X156.417 Y44.298 E.02292
G1 X156.543 Y45.019 E.02292
G1 X156.546 Y45.75 E.02292
G1 X156.438 Y46.392 E.02041
M204 S1000
G1 X156.715 Y46.73 F10800
;WIPE_START
G1 F8640
G1 X156.184 Y47.161 E-.18704
G1 X155.841 Y47.78 E-.16333
G1 X155.373 Y48.37 E-.17394
G1 X154.826 Y48.856 E-.16905
G1 X154.581 Y49.008 E-.06664
;WIPE_END
G1 E-.04 F2100
G1 Z.6 F720
G1 X156.782 Y88.427 F10800
G1 Z.2 F720
G1 E.8 F2100
M204 S800
;TYPE:Perimeter
G1 F1200
G1 X156.914 Y89.15 E.02305
G1 X156.922 Y89.954 E.02521
G1 X156.797 Y90.734 E.02477
G1 X156.54 Y91.486 E.02492
G1 X156.159 Y92.184 E.02492
G1 X155.666 Y92.808 E.02492
G1 X155.075 Y93.339 E.02492
G1 X154.402 Y93.763 E.02492
G1 X153.668 Y94.066 E.02492
G1 X152.893 Y94.242 E.02492
G1 X152.099 Y94.284 E.02492
G1 X151.31 Y94.191 E.02492
G1 X150.61 Y93.985 E.02287
G1 X149.834 Y93.615 E.02695
G1 X149.19 Y93.149 E.02492
G1 X148.634 Y92.581 E.02492
G1 X148.196 Y91.947 E.02418
G1 X147.849 Y91.209 E.02555
G1 X147.64 Y90.439 E.02502
G1 X147.564 Y89.648 E.02492
G1 X147.623 Y88.855 E.02492
G1 X147.81 Y88.107 E.02418
G1 X148.134 Y87.36 E.02555
G1 X148.574 Y86.694 E.02502
G1 X149.118 Y86.114 E.02492
G1 X149.752 Y85.635 E.02492
G1 X150.458 Y85.27 E.02492
G1 X151.216 Y85.029 E.02492
G1 X151.98 Y84.923 E.02418
G1 X152.794 Y84.946 E.02555
G1 X153.576 Y85.106 E.02502
G1 X154.317 Y85.394 E.02492
G1 X154.998 Y85.804 E.02492
G1 X155.6 Y86.323 E.02492
